X:7
T: dr alt Schorieder  Bb (trad.)
T:Dirigenten-Notiz, Edi Gasser. 
C:Unterwalden (CH)
C:
%%partsbox
M:2/4
%Q:1/4=110
R:Naturjuiz
L:1/4
K:Bb
[P:A]  BA/G/ | FB | D2 | dB | c>A | FA | E2 | c>A | 
FA | Ed | B>G | FB | !fermata!D2 | BA/G/ | FB | D2 | 
dB | c>A | FA | E2 | c>A | FA | Ed | !fermata!B2 || 
[P:B] E>D | C>F | c2 | d>c | Bd | F2 | A>G | FA | 
Ed | B>G | F B | !fermata!D2 | E>D | C>F | c2 | 
d>c | Bd | F2 | A>G | FA | Ed | B2 |] 
W: Parts: A-B-A-B
W:
W: UJV-Naturjodelsammlung: Code-Nr: 00-04
W:http://www.naturjodler.ch/tradition-1.htm  (with AUDIO)
%April 21, 2018

